X: 1
T: Flowers Of The Burren
M: 6/8
L: 1/8
R: jig
K: Gmaj
B2A G2D|B,DD EDB,|DEG AGE|ABA AGA|
B2A G2D|B,DD EDB,|DEG AGE|GAG G2A:|
|:B2A Bcd|ege dBA|G2G AGE|ABA AGA|
B2A Bcd|ege dBA|G2B AGE|GAG G2A:|
